X:1
T:Title
%%score 1 2
L:1/8
Q:1/4=80
M:4/4
K:D
V:1 treble nm="Grand Piano, Soprano"
V:2 bass nm="Choir Pad, Barcelona, 77.77 D"
V:1
 [FA]>[FA] [Fd][FA] [GB][FA] [FA]2 | [FA]>[FA] [GB][Bd] [Ac][GB] [FA]2 | %2
w: By~Anonymous,~1872 * * * * * *||
 [FA]>[FA] [Fd][FA] [Ad][Ae] [Af]2 | [Af]>[Af] [Ae][Ad] [GB][Gc] [Fd]2 | %4
w: ||
 [Fd]>[Fd] [Fd][FA] [GB][FA] [FA]2 | [Fd]>[Fd] [Fd][Ad] [Ac][Ae] [Ae]2 | %6
w: ||
 [Fd]>[Fd] [Fd][FA] [Ad][G=c] [GB]2 | [GB]>[GB] [Ge][Gd] [Fd][Ec] [Fd]2- | [Fd]4 z4 |] %9
w: |||
V:2
 [D,D]>[D,D] [D,D][D,D] [D,D][D,D] [D,D]2 | [D,D]>[D,D] [D,D][D,D] [D,D][D,D] [D,D]2 | %2
 [D,D]>[D,D] [D,D][D,D] [F,D][A,C] D2 | [D,D]>[D,D] [E,C][F,D] [G,D]A, [D,A,]2 | %4
 [D,A,]>[D,A,] [D,A,][D,D] [D,D][D,D] [D,D]2 | [D,A,]>[D,A,] [D,A,][F,D] [A,E][A,C] [A,C]2 | %6
 [D,A,]>[D,A,] [D,A,][D,D] [F,D][F,D] [G,D]2 | [G,D]>[G,D] [G,B,][G,B,] A,A, [D,A,]2- | %8
 [D,A,]4 z4 |] %9

